16x16/apps/gmpc.svg

<svg height="16" width="16" xmlns="http://www.w3.org/2000/svg"><path d="m14.225 1.092a1.357 1.357 0 0 0 -.364.035l-7.841 1.646c-1.09.143-1.02 1.227-1.02 1.29v4.937l.059 2.168 1.941.832v-7l6-1.127v4.127l.059 2.168 1.941.832v-9.066s-.033-.804-.775-.842z" fill="#5652d2"/><g fill="#3c8cf8"><circle cx="4" cy="12" r="3"/><circle cx="12" cy="11" r="3"/></g></svg>

<svg height="16" width="16" xmlns="http://www.w3.org/2000/svg">
    <path d="M14.225 1.092a1.357 1.357 0 0 0-.364.035L6.02 2.773C4.93 2.916 5 4 5 4.063V9l.059 2.168L7 12V5l6-1.127V8l.059 2.168L15 11V1.934s-.033-.804-.775-.842z" fill="#5652d2"/>
    <g fill="#3c8cf8">
        <circle cx="4" cy="12" r="3"/>
        <circle cx="12" cy="11" r="3"/>
    </g>
</svg>
